(1001)
(T1  D=5.9 CR=0. - ZMIN=-10. - FLAT END MILL)
G90 G94 G91.1 G40 G49 G17
G21

(2D POCKET1)
M5
T1 M6
G54
M8
G0 X203.041 Y65.24
G43 Z15. H1
Z5.
G1 Z2.5 F1440.
Z-9.41 F30.
X203.065 Y65.256 Z-9.592
X203.129 Y65.309 Z-9.757
X203.174 Y65.357 Z-9.822
X203.213 Y65.409 Z-9.887
X203.254 Y65.48 Z-9.929
X203.284 Y65.557 Z-9.971
X203.305 Y65.645 Z-9.986
X203.312 Y65.736 Z-10.
Y66.762 F1440.
G3 X202.993 Y67.081 I-0.319 J0.
G1 X181.341
G3 X181.022 Y66.762 I0. J-0.319
G1 Y64.71
G3 X181.341 Y64.391 I0.319 J0.
G1 X202.993
G3 X203.312 Y64.71 I0. J0.319
G1 Y65.736
G2 X204.408 Y67.593 I2.121 J0.
G3 X203.87 Y69.681 I-0.538 J0.975
G1 X178.741
G3 X178.422 Y69.362 I0. J-0.319
G1 Y62.11
G3 X178.741 Y61.791 I0.319 J0.
G1 X205.593
G3 X205.912 Y62.11 I0. J0.319
G1 Y69.362
G3 X205.593 Y69.681 I-0.319 J0.
G1 X203.87
G2 X201.92 Y70.981 I0. J2.113
G3 X199.97 Y72.281 I-1.95 J-0.813
G1 X176.141
G3 X175.822 Y71.962 I0. J-0.319
G1 Y59.51
G3 X176.141 Y59.191 I0.319 J0.
G1 X208.193
G3 X208.512 Y59.51 I0. J0.319
G1 Y71.962
G3 X208.193 Y72.281 I-0.319 J0.
G1 X199.97
G2 X198.02 Y73.581 I0. J2.113
G3 X196.07 Y74.881 I-1.95 J-0.813
G1 X173.541
G3 X173.222 Y74.562 I0. J-0.319
G1 Y56.91
G3 X173.541 Y56.591 I0.319 J0.
G1 X210.793
G3 X211.112 Y56.91 I0. J0.319
G1 Y74.562
G3 X210.793 Y74.881 I-0.319 J0.
G1 X196.07
G2 X194.12 Y76.181 I0. J2.112
G3 X192.17 Y77.481 I-1.95 J-0.813
G1 X170.941
G3 X170.622 Y77.162 I0. J-0.319
G1 Y54.31
G3 X170.941 Y53.991 I0.319 J0.
G1 X213.393
G3 X213.712 Y54.31 I0. J0.319
G1 Y77.162
G3 X213.393 Y77.481 I-0.319 J0.
G1 X192.17
G2 X190.22 Y78.781 I0. J2.112
G3 X188.27 Y80.081 I-1.95 J-0.813
G1 X168.341
G3 X168.022 Y79.762 I0. J-0.319
G1 Y51.71
G3 X168.341 Y51.391 I0.319 J0.
G1 X215.993
G3 X216.312 Y51.71 I0. J0.319
G1 Y79.762
G3 X215.993 Y80.081 I-0.319 J0.
G1 X188.27
G2 X186.32 Y81.381 I0. J2.113
G3 X184.37 Y82.681 I-1.95 J-0.813
G1 X165.741
G3 X165.422 Y82.362 I0. J-0.319
G1 Y49.11
G3 X165.741 Y48.791 I0.319 J0.
G1 X218.593
G3 X218.912 Y49.11 I0. J0.319
G1 Y82.362
G3 X218.593 Y82.681 I-0.319 J0.
G1 X184.37
G2 X182.42 Y83.981 I0. J2.113
G3 X180.47 Y85.281 I-1.95 J-0.813
G1 X163.141
G3 X162.822 Y84.962 I0. J-0.319
G1 Y46.51
G3 X163.141 Y46.191 I0.319 J0.
G1 X221.193
G3 X221.512 Y46.51 I0. J0.319
G1 Y84.962
G3 X221.193 Y85.281 I-0.319 J0.
G1 X180.47
G2 X178.52 Y86.581 I0. J2.113
G3 X176.57 Y87.881 I-1.95 J-0.813
G1 X160.541
G3 X160.222 Y87.562 I0. J-0.319
G1 Y43.91
G3 X160.541 Y43.591 I0.319 J0.
G1 X223.793
G3 X224.112 Y43.91 I0. J0.319
G1 Y87.562
G3 X223.793 Y87.881 I-0.319 J0.
G1 X176.57
G2 X174.616 Y89.184 I0. J2.117
G3 X172.662 Y90.486 I-1.954 J-0.814
G1 X157.617
Y40.986
X226.717
Y90.486
X172.662
X172.572 Y90.479 Z-9.986
X172.483 Y90.458 Z-9.971
X172.407 Y90.428 Z-9.929
X172.335 Y90.387 Z-9.887
X172.283 Y90.348 Z-9.822
X172.236 Y90.303 Z-9.757
X172.182 Y90.239 Z-9.592
X172.166 Y90.215 Z-9.41
G0 Z5.
X120.7 Y83.826
G1 Z2.5 F30.
Z-9.41
G19 G2 Y83.236 Z-10. J-0.59 K0.
G17 G3 X123. I1.15 J0. F1440.
X118. I-2.5 J0.
X125.7 I3.85 J0.
X115.3 I-5.2 J0.
X128.4 I6.55 J0.
X112.6 I-7.9 J0.
X128.4 I7.9 J0.
G1 X128.393 Y83.327 Z-9.986
X128.372 Y83.416 Z-9.971
X128.342 Y83.492 Z-9.929
X128.301 Y83.563 Z-9.887
X128.262 Y83.615 Z-9.822
X128.217 Y83.663 Z-9.757
X128.153 Y83.716 Z-9.592
X128.129 Y83.733 Z-9.41
G0 Z5.
X120.7 Y48.826
G1 Z2.5 F30.
Z-9.41
G19 G2 Y48.236 Z-10. J-0.59 K0.
G17 G3 X123. I1.15 J0. F1440.
X118. I-2.5 J0.
X125.7 I3.85 J0.
X115.3 I-5.2 J0.
X128.4 I6.55 J0.
X112.6 I-7.9 J0.
X128.4 I7.9 J0.
G1 X128.393 Y48.327 Z-9.986
X128.372 Y48.416 Z-9.971
X128.342 Y48.492 Z-9.929
X128.301 Y48.563 Z-9.887
X128.262 Y48.615 Z-9.822
X128.217 Y48.663 Z-9.757
X128.153 Y48.716 Z-9.592
X128.129 Y48.733 Z-9.41
G0 Z5.
X71.496 Y50.31
G1 Z2.5 F30.
Z-9.41
X71.48 Y50.334 Z-9.592
X71.427 Y50.398 Z-9.757
X71.379 Y50.443 Z-9.822
X71.327 Y50.482 Z-9.887
X71.256 Y50.523 Z-9.929
X71.179 Y50.553 Z-9.971
X71.091 Y50.574 Z-9.986
X71. Y50.581 Z-10.
X68.974 F1440.
G3 X68.655 Y50.262 I0. J-0.319
G1 Y46.21
G3 X68.974 Y45.891 I0.319 J0.
G1 X80.026
G3 X80.345 Y46.21 I0. J0.319
G1 Y50.262
G3 X80.026 Y50.581 I-0.319 J0.
G1 X71.
G2 X69.05 Y51.881 I0. J2.112
G3 X67.1 Y53.181 I-1.95 J-0.813
G1 X66.374
G3 X66.055 Y52.862 I0. J-0.319
G1 Y43.61
G3 X66.374 Y43.291 I0.319 J0.
G1 X82.626
G3 X82.945 Y43.61 I0. J0.319
G1 Y52.862
G3 X82.626 Y53.181 I-0.319 J0.
G1 X67.1
G2 X65.357 Y54.134 I0. J2.071
G3 X63.45 Y53.575 I-0.871 J-0.559
G1 Y40.686
X85.55
Y55.786
X63.45
Y53.575
X63.457 Y53.484 Z-9.986
X63.478 Y53.395 Z-9.971
X63.508 Y53.319 Z-9.929
X63.549 Y53.248 Z-9.887
X63.588 Y53.195 Z-9.822
X63.633 Y53.148 Z-9.757
X63.697 Y53.095 Z-9.592
X63.721 Y53.078 Z-9.41
G0 Z5.
X71.496 Y83.31
G1 Z2.5 F30.
Z-9.41
X71.48 Y83.334 Z-9.592
X71.427 Y83.398 Z-9.757
X71.379 Y83.443 Z-9.822
X71.327 Y83.482 Z-9.887
X71.256 Y83.523 Z-9.929
X71.179 Y83.553 Z-9.971
X71.091 Y83.574 Z-9.986
X71. Y83.581 Z-10.
X68.974 F1440.
G3 X68.655 Y83.262 I0. J-0.319
G1 Y79.21
G3 X68.974 Y78.891 I0.319 J0.
G1 X80.026
G3 X80.345 Y79.21 I0. J0.319
G1 Y83.262
G3 X80.026 Y83.581 I-0.319 J0.
G1 X71.
G2 X69.05 Y84.881 I0. J2.113
G3 X67.1 Y86.181 I-1.95 J-0.813
G1 X66.374
G3 X66.055 Y85.862 I0. J-0.319
G1 Y76.61
G3 X66.374 Y76.291 I0.319 J0.
G1 X82.626
G3 X82.945 Y76.61 I0. J0.319
G1 Y85.862
G3 X82.626 Y86.181 I-0.319 J0.
G1 X67.1
G2 X65.357 Y87.134 I0. J2.071
G3 X63.45 Y86.575 I-0.871 J-0.559
G1 Y73.686
X85.55
Y88.786
X63.45
Y86.575
X63.457 Y86.484 Z-9.986
X63.478 Y86.395 Z-9.971
X63.508 Y86.319 Z-9.929
X63.549 Y86.248 Z-9.887
X63.588 Y86.195 Z-9.822
X63.633 Y86.148 Z-9.757
X63.697 Y86.095 Z-9.592
X63.721 Y86.078 Z-9.41
G0 Z5.
X68.926 Y118.732
G1 Z2.5 F30.
Z-9.41
X68.902 Y118.716 Z-9.592
X68.838 Y118.663 Z-9.757
X68.793 Y118.615 Z-9.822
X68.754 Y118.563 Z-9.887
X68.713 Y118.492 Z-9.929
X68.683 Y118.415 Z-9.971
X68.662 Y118.327 Z-9.986
X68.655 Y118.236 Z-10.
Y116.21 F1440.
G3 X68.974 Y115.891 I0.319 J0.
G1 X80.026
G3 X80.345 Y116.21 I0. J0.319
G1 Y120.262
G3 X80.026 Y120.581 I-0.319 J0.
G1 X68.974
G3 X68.655 Y120.262 I0. J-0.319
G1 Y118.236
G2 X67.355 Y116.286 I-2.112 J0.
G3 X66.055 Y114.336 I0.813 J-1.95
G1 Y113.61
G3 X66.374 Y113.291 I0.319 J0.
G1 X82.626
G3 X82.945 Y113.61 I0. J0.319
G1 Y122.862
G3 X82.626 Y123.181 I-0.319 J0.
G1 X66.374
G3 X66.055 Y122.862 I0. J-0.319
G1 Y114.336
G2 X65.102 Y112.593 I-2.071 J0.
G3 X65.661 Y110.686 I0.559 J-0.871
G1 X85.55
Y125.786
X63.45
Y110.686
X65.661
X65.752 Y110.693 Z-9.986
X65.841 Y110.714 Z-9.971
X65.917 Y110.744 Z-9.929
X65.988 Y110.785 Z-9.887
X66.041 Y110.824 Z-9.822
X66.088 Y110.869 Z-9.757
X66.142 Y110.933 Z-9.592
X66.158 Y110.957 Z-9.41
G0 Z5.
X70.504 Y151.162
G1 Z2.5 F30.
Z-9.41
X70.52 Y151.138 Z-9.592
X70.573 Y151.074 Z-9.757
X70.621 Y151.029 Z-9.822
X70.673 Y150.99 Z-9.887
X70.744 Y150.949 Z-9.929
X70.821 Y150.919 Z-9.971
X70.909 Y150.898 Z-9.986
X71. Y150.891 Z-10.
X80.026 F1440.
G3 X80.345 Y151.21 I0. J0.319
G1 Y155.262
G3 X80.026 Y155.581 I-0.319 J0.
G1 X68.974
G3 X68.655 Y155.262 I0. J-0.319
G1 Y151.21
G3 X68.974 Y150.891 I0.319 J0.
G1 X71.
G2 X72.95 Y149.591 I0. J-2.113
G3 X74.9 Y148.291 I1.95 J0.813
G1 X82.626
G3 X82.945 Y148.61 I0. J0.319
G1 Y157.862
G3 X82.626 Y158.181 I-0.319 J0.
G1 X66.374
G3 X66.055 Y157.862 I0. J-0.319
G1 Y148.61
G3 X66.374 Y148.291 I0.319 J0.
G1 X74.9
G2 X76.854 Y146.988 I0. J-2.117
G3 X78.808 Y145.686 I1.954 J0.814
G1 X85.55
Y160.786
X63.45
Y145.686
X78.808
X78.898 Y145.693 Z-9.986
X78.987 Y145.714 Z-9.971
X79.063 Y145.744 Z-9.929
X79.135 Y145.785 Z-9.887
X79.187 Y145.824 Z-9.822
X79.234 Y145.869 Z-9.757
X79.288 Y145.933 Z-9.592
X79.304 Y145.957 Z-9.41
G0 Z5.
X120.7 Y118.826
G1 Z2.5 F30.
Z-9.41
G19 G2 Y118.236 Z-10. J-0.59 K0.
G17 G3 X123. I1.15 J0. F1440.
X118. I-2.5 J0.
X125.7 I3.85 J0.
X115.3 I-5.2 J0.
X128.4 I6.55 J0.
X112.6 I-7.9 J0.
X128.4 I7.9 J0.
G1 X128.393 Y118.327 Z-9.986
X128.372 Y118.415 Z-9.971
X128.342 Y118.492 Z-9.929
X128.301 Y118.563 Z-9.887
X128.262 Y118.615 Z-9.822
X128.217 Y118.663 Z-9.757
X128.153 Y118.716 Z-9.592
X128.129 Y118.732 Z-9.41
G0 Z5.
X262.687 Y134.912
G1 Z2.5 F30.
Z-9.41
X262.703 Y134.888 Z-9.592
X262.756 Y134.824 Z-9.757
X262.804 Y134.779 Z-9.822
X262.856 Y134.74 Z-9.887
X262.927 Y134.699 Z-9.929
X263.004 Y134.669 Z-9.971
X263.092 Y134.648 Z-9.986
X263.183 Y134.641 Z-10.
X311.259 F1440.
G3 X311.578 Y134.96 I0. J0.319
G1 Y136.512
G3 X311.259 Y136.831 I-0.319 J0.
G1 X262.407
G3 X262.088 Y136.512 I0. J-0.319
G1 Y134.96
G3 X262.407 Y134.641 I0.319 J0.
G1 X263.183
G2 X265.133 Y133.341 I0. J-2.113
G3 X267.083 Y132.041 I1.95 J0.813
G1 X313.859
G3 X314.178 Y132.36 I0. J0.319
G1 Y139.112
G3 X313.859 Y139.431 I-0.319 J0.
G1 X259.807
G3 X259.488 Y139.112 I0. J-0.319
G1 Y132.36
G3 X259.807 Y132.041 I0.319 J0.
G1 X267.083
G2 X269.033 Y130.741 I0. J-2.113
G3 X270.983 Y129.441 I1.95 J0.813
G1 X316.459
G3 X316.778 Y129.76 I0. J0.319
G1 Y141.712
G3 X316.459 Y142.031 I-0.319 J0.
G1 X257.207
G3 X256.888 Y141.712 I0. J-0.319
G1 Y129.76
G3 X257.207 Y129.441 I0.319 J0.
G1 X270.983
G2 X272.933 Y128.141 I0. J-2.112
G3 X274.883 Y126.841 I1.95 J0.813
G1 X319.059
G3 X319.378 Y127.16 I0. J0.319
G1 Y144.312
G3 X319.059 Y144.631 I-0.319 J0.
G1 X254.607
G3 X254.288 Y144.312 I0. J-0.319
G1 Y127.16
G3 X254.607 Y126.841 I0.319 J0.
G1 X274.883
G2 X276.833 Y125.541 I0. J-2.113
G3 X278.783 Y124.241 I1.95 J0.813
G1 X321.659
G3 X321.978 Y124.56 I0. J0.319
G1 Y146.912
G3 X321.659 Y147.231 I-0.319 J0.
G1 X252.007
G3 X251.688 Y146.912 I0. J-0.319
G1 Y124.56
G3 X252.007 Y124.241 I0.319 J0.
G1 X278.783
G2 X280.733 Y122.941 I0. J-2.112
G3 X282.683 Y121.641 I1.95 J0.813
G1 X324.259
G3 X324.578 Y121.96 I0. J0.319
G1 Y149.512
G3 X324.259 Y149.831 I-0.319 J0.
G1 X249.407
G3 X249.088 Y149.512 I0. J-0.319
G1 Y121.96
G3 X249.407 Y121.641 I0.319 J0.
G1 X282.683
G2 X284.633 Y120.341 I0. J-2.112
G3 X286.583 Y119.041 I1.95 J0.813
G1 X326.859
G3 X327.178 Y119.36 I0. J0.319
G1 Y152.112
G3 X326.859 Y152.431 I-0.319 J0.
G1 X246.807
G3 X246.488 Y152.112 I0. J-0.319
G1 Y119.36
G3 X246.807 Y119.041 I0.319 J0.
G1 X286.583
G2 X288.537 Y117.739 I0. J-2.117
G3 X290.491 Y116.436 I1.954 J0.814
G1 X329.783
Y155.036
X243.883
Y116.436
X290.491
X290.581 Y116.443 Z-9.986
X290.67 Y116.464 Z-9.971
X290.746 Y116.494 Z-9.929
X290.818 Y116.535 Z-9.887
X290.87 Y116.574 Z-9.822
X290.917 Y116.619 Z-9.757
X290.971 Y116.683 Z-9.592
X290.987 Y116.707 Z-9.41
G0 Z5.
X263.679 Y66.56
G1 Z2.5 F30.
Z-9.41
X263.663 Y66.584 Z-9.592
X263.61 Y66.648 Z-9.757
X263.562 Y66.693 Z-9.822
X263.51 Y66.732 Z-9.887
X263.439 Y66.773 Z-9.929
X263.362 Y66.803 Z-9.971
X263.274 Y66.824 Z-9.986
X263.183 Y66.831 Z-10.
X262.407 F1440.
G3 X262.088 Y66.512 I0. J-0.319
G1 Y64.96
G3 X262.407 Y64.641 I0.319 J0.
G1 X311.259
G3 X311.578 Y64.96 I0. J0.319
G1 Y66.512
G3 X311.259 Y66.831 I-0.319 J0.
G1 X263.183
G2 X261.399 Y67.75 I0. J2.19
G3 X259.488 Y67.139 I-0.858 J-0.611
G1 Y62.36
G3 X259.807 Y62.041 I0.319 J0.
G1 X313.859
G3 X314.178 Y62.36 I0. J0.319
G1 Y69.112
G3 X313.859 Y69.431 I-0.319 J0.
G1 X259.807
G3 X259.488 Y69.112 I0. J-0.319
G1 Y67.139
G2 X258.188 Y65.189 I-2.113 J0.
G3 X256.888 Y63.239 I0.813 J-1.95
G1 Y59.76
G3 X257.207 Y59.441 I0.319 J0.
G1 X316.459
G3 X316.778 Y59.76 I0. J0.319
G1 Y71.712
G3 X316.459 Y72.031 I-0.319 J0.
G1 X257.207
G3 X256.888 Y71.712 I0. J-0.319
G1 Y63.239
G2 X255.588 Y61.289 I-2.113 J0.
G3 X254.288 Y59.339 I0.813 J-1.95
G1 Y57.16
G3 X254.607 Y56.841 I0.319 J0.
G1 X319.059
G3 X319.378 Y57.16 I0. J0.319
G1 Y74.312
G3 X319.059 Y74.631 I-0.319 J0.
G1 X254.607
G3 X254.288 Y74.312 I0. J-0.319
G1 Y59.339
G2 X252.988 Y57.389 I-2.112 J0.
G3 X251.688 Y55.439 I0.813 J-1.95
G1 Y54.56
G3 X252.007 Y54.241 I0.319 J0.
G1 X321.659
G3 X321.978 Y54.56 I0. J0.319
G1 Y76.912
G3 X321.659 Y77.231 I-0.319 J0.
G1 X252.007
G3 X251.688 Y76.912 I0. J-0.319
G1 Y55.439
G2 X250.696 Y53.625 I-2.154 J0.
G3 X251.277 Y51.641 I0.581 J-0.907
G1 X324.259
G3 X324.578 Y51.96 I0. J0.319
G1 Y79.512
G3 X324.259 Y79.831 I-0.319 J0.
G1 X249.407
G3 X249.088 Y79.512 I0. J-0.319
G1 Y51.96
G3 X249.407 Y51.641 I0.319 J0.
G1 X251.277
G2 X253.227 Y50.341 I0. J-2.113
G3 X255.177 Y49.041 I1.95 J0.813
G1 X326.859
G3 X327.178 Y49.36 I0. J0.319
G1 Y82.112
G3 X326.859 Y82.431 I-0.319 J0.
G1 X246.807
G3 X246.488 Y82.112 I0. J-0.319
G1 Y49.36
G3 X246.807 Y49.041 I0.319 J0.
G1 X255.177
G2 X257.131 Y47.739 I0. J-2.117
G3 X259.085 Y46.436 I1.954 J0.814
G1 X329.783
Y85.036
X243.883
Y46.436
X259.085
X259.175 Y46.443 Z-9.986
X259.264 Y46.464 Z-9.971
X259.34 Y46.494 Z-9.929
X259.412 Y46.535 Z-9.887
X259.464 Y46.574 Z-9.822
X259.512 Y46.619 Z-9.757
X259.565 Y46.683 Z-9.592
X259.581 Y46.707 Z-9.41
G0 Z15.

M9
M30
