(1001)
(T1  D=6. CR=0. - ZMIN=-11.2 - FLAT END MILL)
G90 G94 G91.1 G40 G49 G17
G21

(2D CONTOUR1)
M5
T1 M6
S10000 M3
G54
M8
G0 X30.559 Y34.4
G43 Z15. H1
Z5.
G1 Z1. F330.
Z-1.4
G18 G2 X31.159 Z-2. I0.6 K0.
G1 X31.759 F1440.
G17 G3 X32.359 Y35. I0. J0.6
G2 X32.761 Y36.5 I3. J0.
G1 X50.081 Y66.5
G2 X52.68 Y68. I2.598 J-1.5
G1 X87.321
G2 X89.919 Y66.5 I0. J-3.
G1 X107.239 Y36.5
G2 Y33.5 I-2.598 J-1.5
G1 X89.919 Y3.5
G2 X87.321 Y2. I-2.598 J1.5
G1 X52.68
G2 X50.081 Y3.5 I0. J3.
G1 X32.761 Y33.5
G2 X32.359 Y35. I2.598 J1.5
G3 X31.759 Y35.6 I-0.6 J0.
G1 X31.159
G18 G3 X30.559 Z-1.4 I0. K0.6
G0 Z15.
X69.4 Y11.8
Z5.
G1 Z1. F330.
Z-10.6
G19 G2 Y11.2 Z-11.2 J-0.6 K0.
G1 Y10.6 F1440.
G17 G3 X70. Y10. I0.6 J0.
G1 X84.434
X98.868 Y35.
X84.434 Y60.
X55.566
X41.132 Y35.
X55.566 Y10.
X70.
G3 X70.6 Y10.6 I0. J0.6
G1 Y11.2
G19 G3 Y11.8 Z-10.6 J0. K0.6
G0 Z15.
G17

M9
M30
